X:1
T:Chambre Rousse 2
C:Laurence Beaudry
Z:robin.beech@mcgill.ca
R:jig
M:6/8
L:1/8
K:Emin
|: Ace ecA | GBe eBG | FAd fga | gab dBG |
ceg gec | Bdg dBg | fga dba | gdB GBG :|
dBG DGD | BGD B,DB, | [D3G,3] [D3G,3] |]
